X:1
T:Title
%%score ( 1 2 ) 3
L:1/8
Q:1/4=130
M:6/4
K:Ab
V:1 treble nm="Grand Piano, Soprano"
V:2 treble 
V:3 bass nm="Choir Pad, God�s Word"
V:1
 [CE]2 [CE]2 [DF]2 [CE]2 [CE]2 [CA]2 | [CA]2 [EB]2 [EA]2 [EB]2 [Ec]4 | %2
w: By~William~James~Kirkpatrick * * * * *||
 [Ec]2 [Ee]2 [Ed]2 [Ec]2 [Ec]2 [DB]2 | [CA]2 [=DA]2 [DG]2 [DA]2 [EB]4 | %4
w: ||
 [DE]2 [CE]2 [DF]2 [CE]2 [CE]2 [CA]2 | [CA]2 [EB]2 [EA]2 [EB]2 [Ec]4 | %6
w: ||
 [Ec]2 [Ee]2 [Ed]2 [Ec]2 [Fc]2 [FB]2 | [FA]2 [EG]2 [Ec]2 [DB]2 [CA]4 | %8
w: ||
 [CA]2 [DB]4- [DB]3- [DB]/ z/ [Ec]2 | [DB]2 [CA]4- [CA]2 [CE]4 | E2 [Gd]4- [Gd]3- [Gd]/ z/ [Ge]2 | %11
w: |||
 [Gd]2 [Ec]4- [Ec]4- [Ec]3/2 z/ | cd [Ae]4- [Ae]3- [Ae]/ z/ [Ad]2 | [Ac]2 [FB]4- [FB]2 [DF]4 | %14
w: |||
 [FA]2 [EG]4- [EG]3- [EG]/ z/ [Ec]2 | [DB]2 [CA]4- [CA]4- [CA]3/2 z/ |] %16
w: ||
V:2
 x12 | x12 | x12 | x12 | x12 | x12 | x12 | x12 | x12 | x12 | x12 | x12 | .E6 z6 | x12 | x12 | %15
 x12 |] %16
V:3
 [A,,A,]2 [A,,A,]2 [A,,A,]2 [A,,A,]2 [A,,A,]2 [A,,E,]2 | [A,,E,]2 [E,G,]2 [E,F,]2 [E,G,]2 A,4 | %2
 A,2 [A,C]2 [G,B,]2 A,2 [E,A,]2 [E,G,]2 | [F,A,]2 [B,,F,]2 [B,,B,]2 [B,,A,]2 [E,G,]4 | %4
 [E,G,]2 [A,,A,]2 [A,,A,]2 [A,,A,]2 [A,,A,]2 [A,,E,]2 | [A,,E,]2 [E,G,]2 [E,F,]2 [E,G,]2 A,4 | %6
 A,2 [A,C]2 [A,B,]2 A,2 [D,A,]2 [D,D]2 | [D,D]2 [E,B,]2 [E,A,]2 [E,G,]2 [A,,A,]4 | %8
 [A,,A,]2 [E,G,]2 [E,G,]2 [E,G,]2 [E,G,]2 [E,A,]2 | [E,G,]2 [A,,A,]2 [A,,E,]2 [A,,E,]2 [A,,A,]4 | %10
 [A,C]2 [E,B,]2 [E,B,]2 [E,B,]2 [E,B,]2 [E,C]2 | [E,B,]2 A,2 A,2 A,2 A,4 | %12
 A,B,[K:treble] [A,C]2 [A,C]2 [A,C]2 [A,C]2 [A,F]2 | [A,E]2 [D,D]2 [D,D]2 [D,D]2 [D,B,]2 [D,B,]2 | %14
 [D,B,]2 [E,B,]4 [E,B,]2 [E,B,]2 [E,A,]2 | [E,G,]2 [A,,A,]4- [A,,A,]4- [A,,A,]3/2 z/ |] %16

